X:1
T:Recovery [1], The
M:2/4
L:1/8
S:Howe – 1000 Jigs and Reels (c. 1867)
Z:AK/Fiddler’s Companion
K:C Major
.G.c.B.c | (d/c/d/e/) d2 | (gf).d.B | (c/B/c/d/) c2 |
.G.c.B.c | {e}(d/c/d/e/) d2 | (gf).d.B | c2c2 :|
|: (gf)dB | cecG | FF {G}(F/E/F/G/) | F2 (EG) |
(gf)dB | (ce)cG | FF (F/E/F/D/) | C2z2 :|
K:G
ee/e/ee | e3f | (edcB) | (c/B/c/d/) e2 |
dd/d/dd | d3e | (dcB^A) | G4 ||

